findly-builder/apps/searchassist/src/assets/images/arrow.svg

<?xml version="1.0" encoding="UTF-8"?>
<svg width="12px" height="12px" viewBox="0 0 12 12" version="1.1" xmlns="http://www.w3.org/2000/svg" xmlns:xlink="http://www.w3.org/1999/xlink">
    <!-- Generator: Sketch 51.2 (57519) - http://www.bohemiancoding.com/sketch -->
    <title>arrow</title>
    <desc>Created with Sketch.</desc>
    <defs></defs>
    <g id="arrow" stroke="none" stroke-width="1" fill="none" fill-rule="evenodd">
        <path d="M9.17937465,6.17074516 L4.67092235,10.6791975 C4.59395827,10.7561615 4.50281796,10.794643 4.39749869,10.794643 C4.29217942,10.794643 4.20103911,10.7561615 4.12407503,10.6791975 L3.11544554,9.67056797 C3.03848146,9.59360389 3,9.50246358 3,9.39714431 C3,9.29182504 3.03848146,9.20068473 3.11544554,9.12372065 L6.3418447,5.8973215 L3.11544554,2.67092235 C3.03848146,2.59395827 3,2.50281796 3,2.39749869 C3,2.29217942 3.03848146,2.20103911 3.11544554,2.12407503 L4.12407503,1.11544554 C4.20103911,1.03848146 4.29217942,1 4.39749869,1 C4.50281796,1 4.59395827,1.03848146 4.67092235,1.11544554 L9.17937465,5.62389784 C9.25633873,5.70086192 9.29482019,5.79200223 9.29482019,5.8973215 C9.29482019,6.00264077 9.25633873,6.09378108 9.17937465,6.17074516 Z" id="Path" fill="#8A959F"></path>
    </g>
</svg>

<svg width="12" height="12" xmlns="http://www.w3.org/2000/svg"><path d="m9.18 6.17-4.51 4.51a.374.374 0 0 1-.273.115.374.374 0 0 1-.273-.116L3.115 9.671A.374.374 0 0 1 3 9.397c0-.105.038-.196.115-.273l3.227-3.227-3.227-3.226A.374.374 0 0 1 3 2.397c0-.105.038-.196.115-.273l1.01-1.009A.374.374 0 0 1 4.396 1c.106 0 .197.038.274.115l4.508 4.509a.374.374 0 0 1 .116.273.374.374 0 0 1-.116.274Z" fill="#8A959F" fill-rule="evenodd"/></svg>
